svgs/sharp-light/dial-med-low.svg

<svg xmlns="http://www.w3.org/2000/svg" viewBox="0 0 576 512"><!--! Font Awesome Pro 6.6.0 by @fontawesome - https://fontawesome.com License - https://fontawesome.com/license (Commercial License) Copyright 2024 Fonticons, Inc. --><path d="M312 8l0 48-48 0 0-48 48 0zM120 72l0 48-48 0 0-48 48 0zm336 0l48 0 0 48-48 0 0-48zM568 264l0 48-48 0 0-48 48 0zM8 264l48 0 0 48L8 312l0-48zM120 456l0 48-48 0 0-48 48 0zm336 0l48 0 0 48-48 0 0-48zM299.3 276.7L310.6 288 288 310.6l-11.3-11.3-89.8-89.8c-39.1 50.2-35.5 122.8 10.6 169c50 50 131 50 181 0s50-131 0-181c-46.2-46.2-118.8-49.7-169-10.6l89.8 89.8zM401.1 401.1A160 160 0 1 1 174.9 174.9 160 160 0 1 1 401.1 401.1z"/></svg>

<svg xmlns="http://www.w3.org/2000/svg" viewBox="0 0 576 512"><!--! Font Awesome Pro 6.4.2 by @fontawesome - https://fontawesome.com License - https://fontawesome.com/license (Commercial License) Copyright 2023 Fonticons, Inc. --><path d="M312 8V56H264V8h48zM120 72v48H72V72h48zm336 0h48v48H456V72zM568 264v48H520V264h48zM8 264H56v48H8V264zM120 456v48H72V456h48zm336 0h48v48H456V456zM299.3 276.7L310.6 288 288 310.6l-11.3-11.3-89.8-89.8c-39.1 50.2-35.5 122.8 10.6 169c50 50 131 50 181 0s50-131 0-181c-46.2-46.2-118.8-49.7-169-10.6l89.8 89.8zM401.1 401.1A160 160 0 1 1 174.9 174.9 160 160 0 1 1 401.1 401.1z"/></svg>
